restart-off.svg

<svg fill="currentColor" viewBox="0 0 24 24"><path d="m20.8 22.7-4.2-4.2c-1.7 1.2-3.7 1.7-5.7 1.4l.5-2c1.3.1 2.6-.2 3.7-.9L1.1 3l1.3-1.3 14.1 14.1 1.4 1.4 4.2 4.2zM12 6c1.5 0 3.1.6 4.2 1.8 1.8 1.8 2.2 4.4 1.3 6.6l1.5 1.5c1.7-3 1.2-6.9-1.4-9.5C16.1 4.8 14 4 12 4V.7l-4.1 4L12 8.8zM6.6 9.4 5.1 7.9C3.3 11 3.7 15 6.3 17.7c.8.7 1.7 1.3 2.7 1.7l.5-2q-.9-.45-1.8-1.2c-1.8-1.8-2.2-4.6-1.1-6.8"/></svg>

<svg  viewBox="0 0 24 24" fill="currentColor"><path  d="M20.8,22.7L16.6,18.5C14.9,19.7 12.9,20.2 10.9,19.9L11.4,17.9C12.7,18 14,17.7 15.1,17L1.1,3L2.4,1.7L16.5,15.8L17.9,17.2L22.1,21.4L20.8,22.7M12,6C13.5,6 15.1,6.6 16.2,7.8C18,9.6 18.4,12.2 17.5,14.4L19,15.9C20.7,12.9 20.2,9 17.6,6.4C16.1,4.8 14,4 12,4V0.7L7.9,4.7L12,8.8V6M6.6,9.4L5.1,7.9C3.3,11 3.7,15 6.3,17.7C7.1,18.4 8,19 9,19.4L9.5,17.4C8.9,17.1 8.3,16.7 7.7,16.2C5.9,14.4 5.5,11.6 6.6,9.4Z"/></svg>
